src/components/profile_avatars/profile-female-1-1.svg

<svg xmlns="http://www.w3.org/2000/svg" width="528" height="528" fill="none" viewBox="0 0 528 528"><g clip-path="url(#a)"><ellipse cx="265.5" cy="281.5" fill="#cb3232" rx="257.5" ry="254.5"/><path fill="#e7ab33" d="M465.288 392.832c33.808 65.692 31.383 156.913-36.935 167.621-131.697 11.376-334.7877 96.695-380.1029-23.956-24.2246-64.498 36.2644-125.044 45.3154-227.044 6.9295-78.093-23.7697-165.586 11.8705-231.1391C144.49 6.48153 242.243-.398426 282.573 4.38777 302.828 6.79163 329.738 23.95 336.969 36.4653c0-2.0939 9.539-3.9494 25.803 0 48.817 11.8539 66.225 73.9247 70.436 119.9527 4.439 48.515-10.179 154.3 32.08 236.414"/><path fill="#3d5c35" d="M509.49 934.701c29.164 336.939 62.615 603.689-110.731 618.699-173.346 15-354.1219-400.32-383.286-737.252 15.3422-277.558-36.2642-344.513 134.596-374.5 63.268-7.507 51.717-26.751 122.043-23.012 31.12-1.137 71.831 14.197 136.688 23.014 103.911 23.014 123.438 87.871 123.438 162.492 83.625 253.012-37.771 156.993-22.748 330.559"/><path fill="#1c3715" d="m212.052 378.338-8.48 6.125 9.027 2.255zM331.361 376.295l12.463 5.107-12.613 3.261z"/><path fill="#ffc29f" d="M212.137 389.346c-2.79-69.739-18.73-113.432-8.53-197.655 45.898-43.795 125.045 11.817 125.045 68.414 0 56.598 0 99.951 4.133 134.82 0 18.83-33.502 25.435-53.001 24.409-53.002-2.79-66.643-4.882-67.647-29.988"/><path fill="#f4a77b" d="M274.204 394.228c-39.713 2.658-56.917-9.775-62.897-19.018l-.565-12.03c6.728-1.981 28.619 1.942 56.727 6.696 28.108 4.753 41.777-32.66 63.208-46.084l1.411 6.219c-.748 8.582.705 15.893-2.822 22.803-12.437 24.363-15.348 38.756-55.062 41.414"/><rect width="47.7969" height="71.6953" x="351.173" y="188.542" fill="#ffc29f" rx="23.8984" transform="rotate(24.59 351.173 188.542)"/><rect width="46.3987" height="69.598" fill="#ffc29f" rx="23.1993" transform="rotate(166.16114 70.42797083 105.6908891)scale(1 -1)"/><path fill="#ffc29f" d="M366.2 211.137c1.054-20.506-11.202-70.335-22.348-92.832-32.332 32.481-85.013 30.269-126.143 18.958-32.903-9.048-58.208 3.34-65.153 11.988s-20.462 23.567-13.368 56.034c24.828 113.624 35.072 172.238 120.426 172.238 72.254 0 100.369-45.364 106.586-166.386"/><path fill="#e7ab33" d="M363.318 206.03c1.262-8.024.388-18.846-.702-21.991l18.381 5.765c2.903 4.561 6.198 14.977 3.778 13.588-3.024-1.736-8.38-5.293-14.706.403-2.931 2.64-8.013 12.93-9.639 18.751.437-2.162 1.626-8.491 2.888-16.516"/><path fill="#fdfcf5" d="M260.859 311.559c-19.846 3.893-39.048-3.025-45.933-5.914 2.154 7.464 23.669 28.89 43.446 27.212 27.056-2.294 34.778-25.043 38.712-33.064-6.3 4.007-20.644 8.71-36.225 11.766"/><path fill="#e7ab33" d="M244.306 150.839c55.791-2.789 93.45-22.084 111.582-37.659-31.847-3.719-67.089-23.7108-159.702-23.7108S80.4196 146.19 106.223 168.274l18.74 109.49c11.856-7.671 19.895-43.238 21.011-59.975 1.395-20.922 40.609-64.063 98.332-66.95"/><ellipse cx="367.654" cy="265.211" fill="#f9f9f9" rx="4.88172" ry="12.553"/><ellipse cx="143.793" cy="269.395" fill="#f9f9f9" rx="5.57911" ry="12.553"/><path fill="#e7ab33" d="M161.933 197.299c35.325-45.354 65.37-39.772 76.704-48.584-18.187-16.433-128.103-20.006-141.5464 3.572-13.443 23.577-3.0726 73.378-11.8615 80.022-12.7294 9.624-18.9783 3.195-18.9786-1.091-9.7528 9.764-10.3479 24.287.0003 37.528 16.5857 21.222 42.7012 13.575 66.4242 0s14.234-52.157 29.258-71.447"/><path fill="#48693f" d="M278.085 394.168c-21.996 1.837-58.872-5.707-74.56-9.709-.609 5.569-.338 18.826-.539 29.983-.2 11.156-4.912 18.744-8.012 21.479 17.32 6.588 46.48 14.087 85.527 14.788 43.929.789 66.511-7.889 83.666-14.788-2.503-2.138-9.437-8.867-11.855-16.587-1.239-3.953-6.156-26.269-8.488-37.935-13.54 3.709-43.743 10.932-65.739 12.769"/><path stroke="#1c3715" stroke-width="4.18433" d="M196.794 439.558c15.343 5.579 53.794 14.646 85.082 14.646 36.264 0 66.949-10.461 80.897-14.646"/><path stroke="#1c3715" stroke-linecap="round" stroke-width="4.18433" d="m217.253 399.388-1.996 33.444M330.75 398.01l6.14 32.936M239.238 403.294l-1.996 33.444M309.422 404.623l6.14 32.936M263.181 406.77l-.269 33.5M287.896 407.318l3.205 33.799"/></g><defs><clipPath id="a"><path fill="#fff" d="M0 264C0 118.197 118.197 0 264 0s264 118.197 264 264-118.197 264-264 264S0 409.803 0 264"/></clipPath></defs></svg>

<svg width="528" height="528" viewBox="0 0 528 528" fill="none" xmlns="http://www.w3.org/2000/svg">
<g clip-path="url(#clip0_15659_308276)">
<ellipse cx="265.5" cy="281.5" rx="257.5" ry="254.5" fill="#CB3232"/>
<path d="M465.288 392.832C499.096 458.524 496.671 549.745 428.353 560.453C296.656 571.829 93.5653 657.148 48.2501 536.497C24.0255 471.999 84.5145 411.453 93.5655 309.453C100.495 231.36 69.7958 143.867 105.436 78.3139C144.49 6.48153 242.243 -0.398426 282.573 4.38777C302.828 6.79163 329.738 23.95 336.969 36.4653C336.969 34.3714 346.508 32.5159 362.772 36.4653C411.589 48.3192 428.997 110.39 433.208 156.418C437.647 204.933 423.029 310.718 465.288 392.832Z" fill="#E7AB33"/>
<path d="M509.49 934.701C538.654 1271.64 572.105 1538.39 398.759 1553.4C225.413 1568.4 44.6371 1153.08 15.473 816.148C30.8152 538.59 -20.7912 471.635 150.069 441.648C213.337 434.141 201.786 414.897 272.112 418.636C303.232 417.499 343.943 432.833 408.8 441.65C512.711 464.664 532.238 529.521 532.238 604.142C615.863 857.154 494.467 761.135 509.49 934.701Z" fill="#3D5C35"/>
<path d="M212.052 378.338L203.572 384.463L212.599 386.718L212.052 378.338Z" fill="#1C3715"/>
<path d="M331.361 376.295L343.824 381.402L331.211 384.663L331.361 376.295Z" fill="#1C3715"/>
<path d="M212.137 389.346C209.347 319.607 193.407 275.914 203.607 191.691C249.505 147.896 328.652 203.508 328.652 260.105C328.652 316.703 328.652 360.056 332.785 394.925C332.785 413.755 299.283 420.36 279.784 419.334C226.782 416.544 213.141 414.452 212.137 389.346Z" fill="#FFC29F"/>
<path d="M274.204 394.228C234.491 396.886 217.287 384.453 211.307 375.21L210.742 363.18C217.47 361.199 239.361 365.122 267.469 369.876C295.577 374.629 309.246 337.216 330.677 323.792L332.088 330.011C331.34 338.593 332.793 345.904 329.266 352.814C316.829 377.177 313.918 391.57 274.204 394.228Z" fill="#F4A77B"/>
<rect x="351.173" y="188.542" width="47.7969" height="71.6953" rx="23.8984" transform="rotate(24.59 351.173 188.542)" fill="#FFC29F"/>
<rect width="46.3987" height="69.598" rx="23.1993" transform="matrix(-0.970972 0.239192 0.239192 0.970972 164.092 191.468)" fill="#FFC29F"/>
<path d="M366.2 211.137C367.254 190.631 354.998 140.802 343.852 118.305C311.52 150.786 258.839 148.574 217.709 137.263C184.806 128.215 159.501 140.603 152.556 149.251C145.611 157.899 132.094 172.818 139.188 205.285C164.016 318.909 174.26 377.523 259.614 377.523C331.868 377.523 359.983 332.159 366.2 211.137Z" fill="#FFC29F"/>
<path d="M363.318 206.03C364.58 198.006 363.706 187.184 362.616 184.039L380.997 189.804C383.9 194.365 387.195 204.781 384.775 203.392C381.751 201.656 376.395 198.099 370.069 203.795C367.138 206.435 362.056 216.725 360.43 222.546C360.867 220.384 362.056 214.055 363.318 206.03Z" fill="#E7AB33"/>
<path d="M260.859 311.559C241.013 315.452 221.811 308.534 214.926 305.645C217.08 313.109 238.595 334.535 258.372 332.857C285.428 330.563 293.15 307.814 297.084 299.793C290.784 303.8 276.44 308.503 260.859 311.559Z" fill="#FDFCF5"/>
<path d="M244.306 150.839C300.097 148.05 337.756 128.755 355.888 113.18C324.041 109.461 288.799 89.4692 196.186 89.4692C103.573 89.4692 80.4196 146.19 106.223 168.274L124.963 277.764C136.819 270.093 144.858 234.526 145.974 217.789C147.369 196.867 186.583 153.726 244.306 150.839Z" fill="#E7AB33"/>
<ellipse cx="367.654" cy="265.211" rx="4.88172" ry="12.553" fill="#F9F9F9"/>
<ellipse cx="143.793" cy="269.395" rx="5.57911" ry="12.553" fill="#F9F9F9"/>
<path d="M161.933 197.299C197.258 151.945 227.303 157.527 238.637 148.715C220.45 132.282 110.534 128.709 97.0906 152.287C83.6476 175.864 94.018 225.665 85.2291 232.309C72.4997 241.933 66.2508 235.504 66.2505 231.218C56.4977 240.982 55.9026 255.505 66.2508 268.746C82.8365 289.968 108.952 282.321 132.675 268.746C156.398 255.171 146.909 216.589 161.933 197.299Z" fill="#E7AB33"/>
<path d="M278.085 394.168C256.089 396.005 219.213 388.461 203.525 384.459C202.916 390.028 203.187 403.285 202.986 414.442C202.786 425.598 198.074 433.186 194.974 435.921C212.294 442.509 241.454 450.008 280.501 450.709C324.43 451.498 347.012 442.82 364.167 435.921C361.664 433.783 354.73 427.054 352.312 419.334C351.073 415.381 346.156 393.065 343.824 381.399C330.284 385.108 300.081 392.331 278.085 394.168Z" fill="#48693F"/>
<path d="M196.794 439.558C212.137 445.137 250.588 454.204 281.876 454.204C318.14 454.204 348.825 443.743 362.773 439.558" stroke="#1C3715" stroke-width="4.18433"/>
<path d="M217.253 399.388L215.257 432.832" stroke="#1C3715" stroke-width="4.18433" stroke-linecap="round"/>
<path d="M330.75 398.01L336.89 430.946" stroke="#1C3715" stroke-width="4.18433" stroke-linecap="round"/>
<path d="M239.238 403.294L237.242 436.738" stroke="#1C3715" stroke-width="4.18433" stroke-linecap="round"/>
<path d="M309.422 404.623L315.562 437.559" stroke="#1C3715" stroke-width="4.18433" stroke-linecap="round"/>
<path d="M263.181 406.77L262.912 440.27" stroke="#1C3715" stroke-width="4.18433" stroke-linecap="round"/>
<path d="M287.896 407.318L291.101 441.117" stroke="#1C3715" stroke-width="4.18433" stroke-linecap="round"/>
</g>
<defs>
<clipPath id="clip0_15659_308276">
<path d="M0 264C0 118.197 118.197 0 264 0C409.803 0 528 118.197 528 264C528 409.803 409.803 528 264 528C118.197 528 0 409.803 0 264Z" fill="white"/>
</clipPath>
</defs>
</svg>
